map-marker-star-outline.svg

<svg fill="currentColor" viewBox="0 0 24 24"><path d="M12 2c3.9 0 7 3.1 7 7 0 5.2-7 13-7 13S5 14.2 5 9c0-3.9 3.1-7 7-7m0 2C9.2 4 7 6.2 7 9c0 1 0 3 5 9.7C17 12 17 10 17 9c0-2.8-2.2-5-5-5m0 7.5 2.4 1.5-.6-2.8L16 8.3l-2.9-.2L12 5.4 10.9 8 8 8.3l2.2 1.9-.7 2.8z"/></svg>

<svg  viewBox="0 0 24 24" fill="currentColor"><path  d="M12 2C15.9 2 19 5.1 19 9C19 14.2 12 22 12 22S5 14.2 5 9C5 5.1 8.1 2 12 2M12 4C9.2 4 7 6.2 7 9C7 10 7 12 12 18.7C17 12 17 10 17 9C17 6.2 14.8 4 12 4M12 11.5L14.4 13L13.8 10.2L16 8.3L13.1 8.1L12 5.4L10.9 8L8 8.3L10.2 10.2L9.5 13L12 11.5Z"/></svg>
